X:21
T:Scotch Duty - The Gathering ThFife.21, The
T:Scotch Duty ThFife.21, The
T:Gathering ThFife.21, The
B:Thompson, C. & Thompson, S., 'The Compleat Tutor for the Fife', London, c.1765-1780.
S:Digitised by National Library of Scotland at: https://archive.org/details/nlsmusic
Z:vmp Roger Hare, 2019.
M:3/8
L:1/8
Q:3/8=60
K:G
|: e<!trill!dG | A<Bc | d>ed | c!trill!B>c | AGg | !trill!f>ed | e>d^c |
d>d!trill!d :||: d<gd | c<!trill!BA | !trill!Gee | e3 | d>ed | c<BA |
GAD | D3 | G>AB | c>dc | !trill!B!trill!A>G | A G2 :|

